build/category/GallerySolid.svg

<svg xmlns="http://www.w3.org/2000/svg" fill="none" viewBox="0 0 24 24" focusable="false"><path d="M0 0H24V24H0z"/><path fill="#74767B" fill-rule="evenodd" d="M3 7C3 5.34315 4.34315 4 6 4L18 4C19.6569 4 21 5.34315 21 7L21 17C21 17.1825 20.9837 17.3612 20.9525 17.5348C20.7106 18.8791 19.573 19.9124 18.1796 19.9947C18.1266 19.9978 18.0733 19.9996 18.0196 19.9999C18.0131 20 18.0066 20 18 20L6 20C5.17527 20 4.42827 19.6672 3.88596 19.1286C3.33879 18.5851 3 17.8321 3 17L3 7ZM4.60237 17.9681C4.90932 18.4104 5.42084 18.7 6 18.7L8.64951 18.7L10.543 15.6455L9.7342 14.3385C9.06922 13.2639 7.50586 13.2648 6.84204 14.3401L4.60237 17.9681ZM10.222 18.7L18 18.7C18.9389 18.7 19.7 17.9389 19.7 17L19.7 15.5192L17.3881 11.7987C16.7226 10.7278 15.1636 10.7286 14.4993 11.8003L10.222 18.7ZM10.1807 8.98414C10.1807 10.0847 9.28851 10.9768 8.18799 10.9768C7.08746 10.9768 6.19531 10.0847 6.19531 8.98414C6.19531 7.88362 7.08746 6.99146 8.18799 6.99146C9.28851 6.99146 10.1807 7.88362 10.1807 8.98414Z"/></svg>

<svg xmlns="http://www.w3.org/2000/svg" fill="none" viewBox="0 0 24 24" focusable="false"><path fill="#74767B" fill-rule="evenodd" d="M3 7c0-1.66 1.34-3 3-3h12c1.65 0 3 1.34 3 3v10a3.003 3.003 0 0 1-2.83 2.99h-.16c0 .01-.01.01-.01.01H6c-.83 0-1.58-.34-2.12-.88C3.33 18.58 3 17.83 3 17zm1.6 10.96c.3.45.82.74 1.4.74h2.64l1.9-3.06-.81-1.31c-.67-1.07-2.23-1.07-2.89.01zm5.62.74H18c.93 0 1.7-.77 1.7-1.7v-1.49l-2.32-3.72c-.66-1.07-2.22-1.07-2.89.01zm-.04-9.72c0 1.1-.9 1.99-2 1.99s-1.99-.89-1.99-1.99.89-1.99 1.99-1.99 2 .89 2 1.99"/></svg>
